X: 22874
T: Lark On The Strand, The
R: jig
M: 6/8
K: Adorian
~A3 ABc|BGE ~G3|ABA GBd|egd edB|
~A3 ABc|BGE G2D|GBA G2B|dBG BdB:|
GBd ~g3|gba gdB|GBd g2f|egd edB|
GBd ~g3|gba ~g3|a2b age|edg edB:|

